X:1
T:French Suite VI Bourree
T:BWV 817
T:J. S. Bach
%%score { 1 | 2 }
L:1/8
Q:1/4=200
M:4/4
K:E
V:1 treble nm="Harp"
V:2 bass 
V:1
"^Prestissimo" GA | B2 GB e2 B2 | f2 B2 g2 B2 | a2 ga bagf | agfg egfg | egdg cg^Bg | cdef gfef | %7
 dfcf Bf^Af | Bcde fg^ab | efde fefe | decd eded | cdBc dcdc | B6 GA | B2 GB e2 B2 | f2 B2 g2 B2 | %15
 a2 ga bagf | agfg egfg | egdg cg^Bg | cdef gfef | dfcf Bf^Af | Bcde fg^ab | efde fefe | %22
 decd eded | cdBc dcdc | B6 b2 | dcBc dcdB | edeB fefB | gfgB ^agaB | bfef d2 g^B | c2 g2 d2 g2 | %30
 edef gagf | egdg cg^Bg | c^Bcd efga | baba gafg | agag fg^ef | gfgf ^efde | f6 FG | A2 FA c2 A2 | %38
 f2 c2 a2 f2 | d2 Bc d2 Bd | f2 d2 b2 f2 | gafg agag | fgef gfgf | efde fefe | dedc BcAB | %45
 GBFB EBDB | EFGA Bcde | f2 B2 g2 B2 | agfg a2 b2 | g2 fe gfed | efed cBAG | ABGA BABA | %52
 GAFG AGAG | FGEF GFGF | E6 b2 | dcBc dcdB | edeB fefB | gfgB ^agaB | bfef d2 g^B | c2 g2 d2 g2 | %60
 edef gagf | egdg cg^Bg | c^Bcd efga | baba gafg | agag fg^ef | gfgf ^efde | f6 FG | A2 FA c2 A2 | %68
 f2 c2 a2 f2 | d2 Bc d2 Bd | f2 d2 b2 f2 | gafg agag | fgef gfgf | efde fefe | dedc BcAB | %75
 GBFB EBDB | EFGA Bcde | f2 B2 g2 B2 | agfg a2 b2 | g2 fe gfed | efed cBAG | ABGA BABA | %82
 GAFG AGAG | FGEF GFGF | !fermata!E6 z2 |] %85
V:2
 z2 | z2 E,F, G,F,G,E, | A,G,A,E, B,A,B,E, | CB,CE, DCDE, | E2 B,2 G,2 ^B,2 | C2 G,2 D2 G,2 | %6
 EDCD E2 ^A,2 | B,2 F,2 C2 F,2 | DCB,C D2 F,2 | CB,CB, ^A,B,G,A, | B,^A,B,A, G,F,G,F, | %11
 E,D,E,C, F,2 F,,2 | B,,6 z2 | z2 E,F, G,F,G,E, | A,G,A,E, B,A,B,E, | CB,CE, DCDE, | %16
 E2 B,2 G,2 ^B,2 | C2 G,2 D2 G,2 | EDCD E2 ^A,2 | B,2 F,2 C2 F,2 | DCB,C D2 F,2 | %21
 CB,CB, ^A,B,G,A, | B,^A,B,A, G,F,G,F, | E,D,E,C, F,2 F,,2 | B,,6 D,E, | F,2 D,F, B,2 F,2 | %26
 C2 F,2 D2 F,2 | E2 DE FEDC | EDCD B,GFG | EGDG CG^B,G | C2 GF EFED | C2 G,2 D2 G,2 | EFED CDEF | %33
 GFGF ^EDED | CB,CB, A,B,G,A, | B,CA,B, C2 C,2 | F,2 E,=D, C,B,,A,,G,, | F,,2 z4 CB, | %38
 A,2 CA, F,2 A,F, | B,A,G,B, F,B,E,B, | D,B,C,B, D,B,B,,B, | E,2 D2 C2 E,2 | D,2 C2 B,2 D,2 | %43
 C,2 B,2 ^A,2 F,2 | B,2 B,,C, D,2 B,,D, | E,2 B,,2 F,2 B,,2 | G,F,E,F, G,A,B,C | DCDB, EDEB, | %48
 FEDC B,A,G,F, | E,2 G,2 A,2 B,2 | C2 C,2 D,2 E,2 | F,E,F,E, D,E,C,D, | E,D,E,D, C,B,,C,B,, | %53
 A,,G,,A,,F,, B,,2 B,,,2 | E,,2 B,,2 E,2 D,E, | F,2 D,F, B,2 F,2 | C2 F,2 D2 F,2 | E2 DE FEDC | %58
 EDCD B,GFG | EGDG CG^B,G | C2 GF EFED | C2 G,2 D2 G,2 | EFED CDEF | GFGF ^EDED | CB,CB, A,B,G,A, | %65
 B,CA,B, C2 C,2 | F,2 E,=D, C,B,,A,,G,, | F,,2 z4 CB, | A,2 CA, F,2 A,F, | B,A,G,B, F,B,E,B, | %70
 D,B,C,B, D,B,B,,B, | E,2 D2 C2 E,2 | D,2 C2 B,2 D,2 | C,2 B,2 ^A,2 F,2 | B,2 B,,C, D,2 B,,D, | %75
 E,2 B,,2 F,2 B,,2 | G,F,E,F, G,A,B,C | DCDB, EDEB, | FEDC B,A,G,F, | E,2 G,2 A,2 B,2 | %80
 C2 C,2 D,2 E,2 | F,E,F,E, D,E,C,D, | E,D,E,D, C,B,,C,B,, | A,,G,,A,,F,, B,,2 B,,,2 | %84
 E,,2 B,,2 !fermata!E,2 z2 |] %85

